!!!COM: Palestrina, Giovanni Perluigi da
!!!OPR: Missa Aeterna Christi munera
!!!OMD: Credo
!!!OTL: Et in Spiritum
**kern	**kern	**kern	**kern
*Ibass	*Itenor	*Icalto	*Icant
!Bassus	!Tenor	!Altus	!Cantus
*clefF4	*clefGv2	*clefG2	*clefG2
*k[b-]	*k[b-]	*k[b-]	*k[b-]
*F:ion	*F:ion	*F:ion	*F:ion
*M3/2	*M3/2	*M3/2	*M3/2
=83	=83	=83	=83
1F	1c	1f	1a
2D	2d	2f	2b-
=84	=84	=84	=84
2.F	2.c	2.f	2.a
4F	4c	4f	4a
2E	2c	2g	2g
=85	=85	=85	=85
1F	1c	1a	1f
2C	2c	2g	2e
=86	=86	=86	=86
2.G	2.B	2.g	2.d
4G	4B	4g	4d
2G	2B	2g	2d
=87	=87	=87	=87
2C	2c	2e	2g
2F	2c	2f	2a
2G	2g	2d	2b-
=88	=88	=88	=88
2A	2.f	2c	2a
1B-	.	1d	2f
.	4e	.	.
.	2d	.	2g
=89	=89	=89	=89
1A	2c#	1e	1a
.	2c#	.	.
2r	2r	2r	2r
=90	=90	=90	=90
2D	2d	2f#	2a
2D	2d	2f#	2a
2G	2d	2g	2b
=91	=91	=91	=91
2C	2e	2g	2cc
2.F	2.f	2.c	2.a
4F	4f	4c	4a
=92	=92	=92	=92
2BB-	2d	2f	1b-
1B-	1d	1f	.
.	.	.	2f
=93	=93	=93	=93
2F	2c	2f	2a
1G	1B	1d	1g
*-	*-	*-	*-
!!!CDT: 1525/^1526/-1594/2/2
!!!OCY: Italia
!!!AGN: Mass (Paraphrase)
!!!AST: renaissance, vocal
!!!ASW: Hymn
!!!PWK: Masses, Book 5
!!!RNB: Cadence finals: C
!!!YOR: Le Opere Complete, v. 15, p. 1
!!!YOO: Rome, Italy: Fratelli Scalera
!!!END: 1992//
!!!EED: John Miller
!!!YEC: Copyright 2000, John Miller
!!!YEN: United States of America
!!!YEM: Rights to all derivative electronic formats reserved.
!!!YEM: Refer to licensing agreement for further details.
!!!YEM: This file must be accompanied by the licensing agreement.
!!!YEM: A copy of the licensing agreement may be found at http://www.music-cog.ohio-state.edu/HumdrumDatabases/Palestrina/license.txt
!!!EMD: converted to Humdrum by Bret Aarden
